X: 29373
T: Newmarket, The
R: polka
M: 2/4
K: Gmajor
|:de/d/ Bd/B/|AD G>B|AD GA|BA AB|de/d/ Bd/B/|
AD G>B|1 AD GA|BG G2:|2 AD E/F/G/A/|BG G2||
|:de/f/ g2|fe e/f/e/d/|Bd ef|ed d2|
de/f/ g2|fe e/f/e/d/|Bd ef|g2 g2:|

